X: 3
T: Campbell's Farewell To Red Gap
R: reel
M: 4/4
L: 1/8
K: Amix
|: e2 | A3 B c2 d2 | e2 a2 e3 d | c2 A2 A2 Bc | d3 B G2 B2 |
A3 B c2 d2 | e2 a2 e3 d | c2 BA G2 B2 | A4 A2 :|
|: gf | e2 a2 a2 gf | e2 a2 e3 d | c2 A2 A2 Bc | d3 B G2 gf |
e2 a2 a2 gf | e2 a2 e3 d | c2 BA G2 B2 | A4 A2 :|


Tune 2303	Setting 2303

